X: 1
T: Trip to the Jubilee
T: Country Dance at the Jubilee
T: Edinburgh Castle
S: Henry Atkinson's original MS, Hartburn, Northumberland, 1694.
S: Playford 1698
B: Peter Barnes "English Country Dance Tunes" v.1(rev) 1996 p.130
N: "As 'tis Danced at the Playhouse"
R: jig
Z: 2012 John Chambers <jc:trillian.mit.edu>
M: 9/8
L: 1/8
K: D
|:\
"D"FA2 A2B AFD | "G"GB2 Bcd "A"E2E | "D"FA2 A2B AFD | "G"G2B "(C)"=c2B "D"AFD :|
"D"Ad2 d2f/e/ d2D | "D"F{G}A-A "(Bm)"B{c}dF "A(Em)"E2d | "A"ce2 e2{f}g/f/ e2E | "G"G2{A}B/c/ d2e "(D)"fed |
"G"BG2 B{c}de dBG | "D"AF2 A2B "A"A3 | "G"B3 "A"A3 "D"d3 | "D(A)"F2G A2B "D"AFD |]
